X: 139
T:Duchess Tree
M:C
L:1/8
R:Strathspey
K:D
d>e|"D"f2 f2 f2 e>f|"G"g2 B2 B2 c>B|"D"A2 d2 a2 f2|"A"e6 d>e|"D"f2 f2 f2
 e>f|!
"G"g2 B2 B2 cB|"D"AB cd f2 "A"e2|"D"d6 e>f||"G"g2 g2 g2 d>e|"D"f2 f2 f2
d>B|A2 d2 a2 f2|!
"A"e6 d>e|"D"f2 f2 f2 e>f|"G"g2 B2 B2 cB|"D"AB cd e2 "A"e2|"D"d6||
% <A name="D1X140">
